X: 19
T: No_118_"I_Wish_I_Was_Out_on_the_Rocks".krn
N: Derived from No_118_"I_Wish_I_Was_Out_on_the_Rocks".krn
%%abc-version 2.0
%%abcx-abcm2ps-target-version 5.9.1 (29 Sep 2008)
%%abc-creator hum2abc beta
%%abcx-conversion-date 2019/03/15 08:36:13
%%humdrum-veritas 496211586
%%humdrum-veritas-data 3921009240
%%linebreak <none>
%%barnumbers 0
L: 1/8
M: 2/4
K: E clef=bass
[K:clef=bass][M:2/4]z2G,3/G,/ | 
B,2z2 | 
B,2C3/B,/ ||  
[M:3/4]B,B,-B,2^A,/G,/A, ||  
[M:2/4]B,2z2 ||  
[M:3/4]B,2^A,/G,/A,/B,/ G, z ||  
[M:2/4]B,/G,3/ G,/F,3/ | 
E,4 | 
(3G,F,F, (3G,F,F, | 
E,3/G,/ (3G,F,E, | 
F,E, E, z | 
E,2!fermata!F,2 | 
G,/G,3/ F,/E,3/ ||  
[M:3/4](3F,E,E, E,E, E, z ||  
[M:2/4]E,2(3F,F,F, ||  
[M:3/4]E,E, (3E,E,E,E,2 | 
E,6 ||  
z6 ||  
[M:2/4]B,/G,3/ (3G,F,E, ||  
[M:3/4]F,E, E,E, E, z ||  
[M:2/4]F,2!fermata!E,2 | 
F,F,E,2 | 
F,E, E, z | 
F,E,-E,2 | 
G,2G,2 |]  



